X:1
T:Title
%%score { 1 | ( 2 3 ) }
L:1/8
M:4/4
K:Ab
V:1 treble nm="Grand Piano"
V:2 bass 
V:3 bass 
V:1
 z4 z[Q:1/4=100] CCC | F2 FG A2 GF | [=EG]4- [EG]CCC | G2 GA B2 AG | A4- AFFF | %5
 [Fc]2 cc .[=EGd]2 [B,EB][A,EA] | [G,CG]4- [G,CG]CCC | [B,=EB]2 [EB][EB] [EB]AGF | %8
 [Fc]4- [Fc][Fc][Fc][FB] | A2 FA c2 BA | G4- GBBA | G2 AB cC=D=E | F4 G2 G2 | A3 A BAGF | %14
 [Fc]4- [Fc][Fc][Fc][FB] | A2 FA c2 BA | G4- GBBA | G2 AB cC=D=E |[M:5/8] F-F- F3 |] %19
V:2
 z4 z [C,F,A,][C,F,A,][C,F,A,] | [F,A,C]2 [F,A,C][=E,G,C] [F,A,C]2 [C,B,C][C,F,C] | [C,G,]8 | %3
 [C,=E,C]2 [C,G,C][C,A,C] [C,B,C]2 [C,A,C][C,G,C] | [F,A,C]4- [F,A,C][F,A,C][F,A,C][F,A,C] | %5
 z2 .F2 z[K:treble] c[K:bass]C,C, | C,4 =E,C,C,C, | C,2 [C,B,]2 [C,B,][C,A,C][C,B,C][C,A,C] | %8
 [C,F,]4- [C,F,][C,F,][C,F,][C,B,] | [C,A,C]2 [C,A,C][C,F,C] [C,F,C]2 [C,B,C][C,F,C] | %10
 [C,=E,C]4- [C,E,C][C,G,C][C,G,C][C,E,C] | [C,B,C]2 [C,A,C][C,B,C] .C2 z2 | %12
 [F,A,C]4 [C,=E,C]2 [C,E,C]2 | [F,A,C]3 [C,F,C] [C,B,C][C,A,C][C,G,C][C,A,C] | %14
 [C,F,]4- [C,F,][C,F,][C,F,][C,B,] | [C,A,C]2 [C,A,C][C,F,C] [C,F,C]2 [C,B,C][C,F,C] | %16
 [C,=E,C]4- [C,E,C][C,G,C][C,G,C][C,E,C] | [C,B,C]2 [C,A,C][C,B,C] .C2 z2 | %18
[M:5/8] [F,A,C]-[F,A,C]- [F,A,C]3 |] %19
V:3
 x8 | x8 | x8 | x8 | x8 | [C,A,]4 [C,B,]2[K:treble][K:bass] z2 | x8 | x8 | x8 | x8 | x8 | z4 C,4 | %12
 x8 | x8 | x8 | x8 | x8 | z4 C,4 |[M:5/8] x5 |] %19

